X:3
T:Miss Gordon of Gight
C:Isaac Cooper
G:fiddle reel, early 1780s
M:C
L:1/8
Q:1/4=120
S:Alistair Fraser's "return to kintrail"
K:Cmin
V:1 
G,| "Cm"G,CEG cgec|"Gm"B/c/dBG "Bb"FDB,D|\
    "Cm"CEGF/E/ "Gm"DFBG|"Bb"FDB,D "Cm"EC C
G,| "Cm"G,CEG cgec|"Gm"B/c/dBG "Bb"FDB,D|\
    "Cm"CEGF/E/ "Gm"DFBG|"Bb"FDB,D "Cm"EC C
 d| "Cm"egbg  "Gm"ag"Eb"fe|"Bb"de"Gm"fg "Eb"fdBf |\
    "Eb"egba/g/ "Gm"ag"Eb"fe|"Bb"dB"Gm"fd  "Cm"cd cd|
    "Cm"egbg  "Gm"ag"Eb"fe|"Bb"de"Gm"fg "Bb"fdBf |\
    "Gm"gf"Bb"ed "Cm"cdec|"Gm"BG"Bb"FD  "Cm"EC C ||
V:2 
E | E4C4|G2E2 D2F2|\
    E2D2 B4|F4 C3 E |
    E4C4|G4 D2B2|\
    E4 B4|F4 C3 D|
    C6 E2 |D4 G4|\
    B4 d2e2|f2d2  g2e2|
    c2B2 G4|D2G2 F2E2 |\
    D2F2 E2G2|G2F2  GE G||
